X:1
T:Gute Nacht!
T:Gute Nacht!
T:Robert Franz (1815–1862) Op. 5, No. 7.
T:Joseph von Eichendorff (1788–1857) 
T:Hills and forests already sink deeper and deeper in the evening gold, a little bird asks from its tree branch: Do I have to greet your beloved? O bird, you have deceived yourself: she no longer lives in this valley, take the wing and go up to the sky, send my love up there one last time. 
T:Colline e foreste già sprofondano sempre più in profondità nell'oro della sera, un uccellino chiede dal suo ramo d'albero: Devo salutare la tua amata? O uccellino, ti sei ingannato: lei non vive più in questa valle, spiega le ali e sali verso il cielo, portale il mio amore lassù un'ultima volta. 
T:by Mutopia-2006/12/18-585
T:by Mutopia-2006/12/18-585
C:Robert Franz (1815–1862) Op. 5, No. 7.
Z:Joseph von Eichendorff (1788–1857)
Z:by Mutopia-2006/12/18-585
%%score 1 { 2 | 3 }
L:1/8
Q:1/4=81
M:6/8
K:F
V:1 treble nm="Voice"
V:2 treble nm="Piano"
V:3 bass 
V:1
"^Andante." z6 | z3 z2!p! A | A2 A A3/2 A/ A | B B2 z2 B/ B/ | A3/2 E/ E (EF) G | F2 z z2 A | %6
w: |Die|Höh’n und Wäl\- der schon|stei gen im mer|tie\- fer in’s A- * bend|gold, ein|
 A2 A A3/2 A/ A | !>!c !wedge!c z z2 A/ =B/ |!<(! c2 c =B2 c!<)! | d3- d2 A/ =B/ | c2 c =B2 c | %11
w: Vög\- lein fragt in den|Zwei gen: ob es|Lieb\- chen grü\- ßen|soll’, _ ob es|Lieb\- chen grü\- ßen|
 A3 z2 A | G3/2 G/ G G3/2 G/ G | B B2 z2 B |!<(! B3/2 B/ B B2 B!<)! |!>(! _d3- d2!>)! ^c | %16
w: soll’? O|Vög\- lein, du hast dich be\-|tro\- gen, sie|woh\- net nicht mehr im|Tal; _ schwing’|
!<(! !>!=d3/2 d/ d d2 d!<)! |!mf!!>(! (e2 B) B2!>)!!p! B/ B/ | A3 A2 A |"^dim." A3 A3 | A3- A2 z |] %21
w: auf dich zum Him\- mels\-|bo- * gen, grüß’ sie|dro\- ben zum|letz\- ten|Mal. _|
V:2
!pp! [A,DF]2 [A,DF] [A,DF]2 [A,DF] | [A,DF]2 [A,DF] [A,DF]2 [A,DF] | %2
 [A,DF]2 [A,DF] [A,DF]2 [A,DF] | [B,EG]2 [B,EG] [B,EG]2 [B,EG] | [A,EG]2 [A,EG] [A,EG]2 [A,EG] | %5
 [A,DF]2 [A,DF] [A,DF]2 [A,DF] | [A,DF]2 [A,DF] [A,DF]2 [A,DF] | [C^FA]2 [CFA] [CFA]2 [CFA] | %8
 [EA]2 [EA]!<(! [E_A]2 [EA]!<)! |!>(! [DA]2!>)! [DA] [DA]2 [^DA] | [EA]2 [EA] [=DE^G]2 [DEG] | %11
!<(! [CEA]2 [CEA] [CEA]2 [CEA]!<)! | [_B,E=G]2 [B,EG] [B,EG]2 [B,EG] | %13
 [B,EG]2 [B,EG] [B,EG]2 [B,EG] |!<(! [B,DG]2 [B,DG] [B,DG]2 [B,DG]!<)! | %15
!>(! [B,_DG]2 [B,DG] [B,DG]2 [B,DG]!>)! |!<(! [B,=DG]2 [B,DG] [B,DG]2 [B,DG]!<)! | %17
!mf!!>(! [B,=EG]2 [B,EG] [B,EG]2!>)!!p! [B,EG] | [A,EG]2 [A,EG] [A,E^F]2 [A,DF] | %19
 [A,D=F]2"_dim." [A,DF] [G,DE]2 [G,^CE] | [^F,D]3- [F,D]2 z |] %21
V:3
!ped! [D,,D,]2 [D,,D,] [D,,D,]2 [D,,D,] | [D,,D,]2 [D,,D,] [D,,D,]2 [D,,D,] | %2
 [D,,D,]2 [D,,D,] [D,,D,]2 [D,,D,]!ped-up! |!ped! [D,,D,]2 [D,,D,] [D,,D,]2 [D,,D,]!ped-up! | %4
!ped! [^C,,^C,]2 [C,,C,] [C,,C,]2 [C,,C,]!ped-up! |!ped! [D,,D,]2 [D,,D,] [D,,D,]2 [D,,D,] | %6
 [D,,D,]2 [D,,D,] [D,,D,]2 [D,,D,]!ped-up! |!ped! [^D,,^D,]2 [D,,D,] [D,,D,]2 [D,,D,]!ped-up! | %8
!ped! [E,,E,]2 [E,,E,]!ped-up!!ped! [E,,E,]2 [E,,E,]!ped-up! | %9
!ped! [F,,F,]2 [F,,F,] [F,,F,]2 [F,,F,]!ped-up! | %10
!ped! [E,,E,]2 [E,,E,]!ped-up!!ped! [E,,,E,,]2 [E,,,E,,]!ped-up! | %11
!ped! [A,,,A,,]2 [A,,,A,,] [A,,,A,,]2 [A,,,A,,]!ped-up! | %12
!ped! [C,,C,]2 [C,,C,] [C,,C,]2 [C,,C,]!ped-up! | %13
!ped! [^C,,^C,]2 [C,,C,] [C,,C,]2 [C,,C,]!ped-up! | %14
!ped! [D,,D,]2 [D,,D,] [D,,D,]2 [D,,D,]!ped-up! | %15
!ped! [_E,,_E,]2 [E,,E,] [E,,E,]2 [E,,E,]!ped-up! | %16
!ped! [D,,D,]2 [D,,D,] [D,,D,]2 [D,,D,]!ped-up! |!ped! [C,,C,]2 [C,,C,] [C,,C,]2 [C,,C,]!ped-up! | %18
 [^C,,^C,]2 [C,,C,] [D,,D,]2 [D,,D,] | [A,,,A,,]2 [A,,,A,,] [A,,,A,,]2 [A,,,A,,] | %20
 [D,,A,,]3- [D,,A,,]2 z |] %21

